assets/symbols/mulberry/striped.svg

<svg height="850.394" viewBox="0 0 850.394 850.394" width="850.394" xmlns="http://www.w3.org/2000/svg"><path d="m256.43 116.75v612.14h-83.59v-612.45h83.59zm169.04-.31v612.45h-84.83v-612.45l84.83-.01zm168.73.31v612.14h-84.83v-612.46h84.83zm169.5-.32v612.46h-84.83v-612.46z" fill="#fbed24"/><path d="m678.87 728.59v.3h-84.67v-612.46h84.67zm-169.5-611.69v611.99h-83.9v-612.46h83.9zm-168.73.47v611.52h-84.21v-612.45h84.21zm-254.49-.93h86.69v612.45h-86.69z" fill="#0071bc"/><g fill="none"><path d="m86.15 116.44v612.45m86.69-612.45v612.45m83.59-612.14v612.46m84.21-611.84v612.45m84.83-613.38v612.45m83.9-611.99v612.46m84.83-612.61v612.45m84.67-613.07v612.46m84.83-612.16v612.46" stroke="#231f20" stroke-width="28"/><path d="m0 0h850.394v850.394h-850.394z"/></g></svg>

<svg xmlns="http://www.w3.org/2000/svg" width="850.394" height="850.394" viewBox="0 0 850.394 850.394" overflow="visible"><path fill="#fbed24" d="M256.43 116.75v612.14h-83.59V116.44h83.59zM425.47 116.44v612.45h-84.83V116.44l84.83-.01zM594.2 116.75v612.14h-84.83V116.43h84.83zM763.7 116.43v612.46h-84.83V116.43z"/><path fill="#0071bc" d="M678.87 728.59v.3H594.2V116.43h84.67zM509.37 116.9v611.99h-83.9V116.43h83.9zM340.64 117.37v611.52h-84.21V116.44h84.21zM86.15 116.44h86.69v612.45H86.15z"/><g fill="none" stroke="#231f20" stroke-width="28"><path d="M86.15 116.44v612.45M172.84 116.44v612.45M256.43 116.75v612.46M340.64 117.37V729.82M425.47 116.44v612.45M509.37 116.9v612.46M594.2 116.75V729.2M678.87 116.13V728.59M763.7 116.43v612.46"/></g><path fill="none" d="M0 0h850.394v850.394H0z"/></svg>
